!!!!SEGMENT: pl-wumfc--n28541--005_moniuszko-stanislaw--verbum-nobile-4-piesn-stanislawa.krn
!!!cenid: 18xx:4211
!!!COM: Moniuszko, Stanisław
!!!COM-rismID: pe30008351
!!!CDT: 1819/05/05-1872/06/04
!!!CNT: Polish
!!!GTL: Verbum nobile
!!!OTL: 4. Pieśń Stanisława
!!!OMV: 005
!!!PDT:
!!!AGN:
!!!SMS-siglum: PL-Wumfc
!!!SMS-shelfmark: N28541
!!!SMS-variant:
!!!SMS-altvar:
!!!SMS-shelfwork: 005-005 G
!!!NIFC-rismSourceID: 1001152972
!!!NIFC-rismChildID: 1001152972
!!!NIFC-islandoraID: pl-wumfc:3225
!!!URL-pdf-islandora: https://repozytorium.nifc.pl/islandora/object/pl-wumfc:3225/datastream/PDF/view
!!!URL-scan: https://polish.musicsources.pl/pl/lokalizacje/galeria/druki-muzyczne/12012/19 @EN{Scan on Polish Music Sources Website} @PL{Skany w portalu Dziedzictwo Muzyki Polskiej w otwartym dostępie}
!!!IIIF:
!!!ONB-nifc: Skany 0019-0021
!!!OMD: Allegro moderato. [quarter]=88.
!!!AIN: 1 barit 1 piano
!!!key: B-
**kern	**kern	**dynam	**fing	**kern	**text	**dynam
*part2	*part2	*part2	*part2	*part1	*part1	*part1
*staff3	*staff2	*	*	*staff1	*staff1	*
*IGacmp	*IGacmp	*	*	*IGsolo	*	*
*ICklav	*ICklav	*	*	*ICvox	*	*
*Ipiano	*Ipiano	*	*	*Ibarit	*	*
*I"Piano.	*I"Piano.	*	*	*I"[Stanisław]	*	*
*I'	*I'	*	*	*I'	*	*
*clefF4	*clefG2	*	*	*clefG2	*	*
*k[b-e-]	*k[b-e-]	*	*	*k[b-e-]	*	*
*B-:	*B-:	*	*	*B-:	*	*
*M3/4	*M3/4	*	*	*M3/4	*	*
=1	=1	=1	=1	=1	=1	=1
*ped	*	*	*	*	*	*
8BB- 8BBB-/	8r	f	.	2.r	.	.
!	!LO:TX:t=P:problem:marcato below	!	!	!	!	!
8B- 8F 8D 8BB-\	([8dd 8b- 8f 8d^^/	.	.	.	.	.
!	!LO:TX:b:i:t=brillante	!	!	!	!	!
8B-L 8F 8D 8BB-\	16dd\LL]	.	.	.	.	.
.	16ee-\	.	.	.	.	.
8B- 8F 8D 8BB-\	16een\	.	.	.	.	.
.	16ff\JJ	.	.	.	.	.
.	8qaa/	.	.	.	.	.
8B- 8F 8D 8BB-\	16gg\LL	.	.	.	.	.
.	16ff\	.	.	.	.	.
8B-J 8F 8D 8BB-\	16bb-\	.	.	.	.	.
*Xped	*	*	*	*	*	*
.	16ddd\JJ)	.	.	.	.	.
=2	=2	=2	=2	=2	=2	=2
8AL 8F 8C 8BB-\	8fff 8ff'\	.	.	2.r	.	.
8A 8F 8C 8BB-\	4eeen 4ccc 4een^^\	.	.	.	.	.
8A 8F 8C 8BB-\	.	.	.	.	.	.
8AJ 8F 8C 8BB-\	4eee-X 4ccc 4ee-X^^\	.	.	.	.	.
8AL 8F 8E- 8BB-\	.	.	.	.	.	.
8AJ 8F 8E- 8BB-\	8ccc 8ff 8cc^^\	.	.	.	.	.
!!linebreak:original
=3	=3	=3	=3	=3	=3	=3
8B-L 8F 8D 8BB-\	(4ccc#X 4ff (4cc#X^\	.	.	2.r	.	.
8B- 8F 8D 8BB-\	.	.	.	.	.	.
8B- 8F 8D 8BB-\	16dddLL 16dd\))	.	.	.	.	.
.	(16ee-\	.	.	.	.	.
8B- 8F 8D 8BB-\	16een\	.	.	.	.	.
.	16ff\JJ	.	.	.	.	.
.	8qaa/	.	.	.	.	.
8B- 8F 8D 8BB-\	16gg\LL	.	.	.	.	.
.	16ff\	.	.	.	.	.
8B-J 8F 8D 8BB-\	16bb-\	.	.	.	.	.
.	16ddd\JJ)	.	.	.	.	.
=4	=4	=4	=4	=4	=4	=4
8AL 8F 8E- 8BB-\	8ggg 8gg'\	.	.	2.r	.	.
8A 8F 8E- 8BB-\	([8fff [8ff^^\	.	.	.	.	.
8A 8F 8E- 8BB-\	16fff]LL 16ff\]	.	.	.	.	.
.	16eee-\	.	.	.	.	.
8AJ 8F 8E- 8BB-\	16ccc\	.	.	.	.	.
.	16ff\JJ)	.	.	.	.	.
8AL 8F 8BB-\	8.dddL 8.ff^\	.	.	.	.	.
8AJ 8F 8BB-\	.	.	.	.	.	.
.	16cccJk 16ee-\	.	.	.	.	.
=5	=5	=5	=5	=5	=5	=5
8B-L 8F 8BB-\	[4bb- [4dd\	>	.	4r	.	.
8B-J 8F 8D\	.	.	.	.	.	.
8B-L 8F 8BB-\	8bb-] 8dd\]	]	.	4r	.	.
8B-J 8F 8D\	8r	.	.	.	.	.
8B-L 8F 8BB-\	(8d/L	p	.	8d/	Za-	.
8B-J 8F\	8e-/J	.	.	8e-/	-każ	.
!!linebreak:original
=6	=6	=6	=6	=6	=6	=6
8FL 8BB-'\	8f/L)	.	.	4.f/	niech	.
8B- 8F'\	8f 8d'/	.	.	.	.	.
8F 8BB-'\	8f 8d'/	.	.	.	.	.
8B- 8F'\	8dd 8d'/	.	.	8dd\	o-	.
8F 8BB-'\	8b- 8d'/	.	.	8.b-\	-żyw-	.
8B-J 8F'\	8d'/J	.	.	.	.	.
.	.	.	.	16d/	-cze	.
=7	=7	=7	=7	=7	=7	=7
8FL 8BB-'\	8gL 8d'/	.	.	4g/	słon-	.
8B- 8F'\	8gJ 8d'/	.	.	.	.	.
8F 8BB-'\	8fL 8d'/	.	.	8f/	-ko	.
8B- 8F'\	8fJ 8d'/	.	.	8r	.	.
8F 8BB-'\	8aL 8d'/	.	.	8.a/	nie	.
8B-J 8F'\	8gJ 8d'/	.	.	.	.	.
.	.	.	.	16g/	jas-	.
=8	=8	=8	=8	=8	=8	=8
8FL 8C'\	8fL 8e-/	.	.	4.f/	-nie-	.
8AJ 8F'\	8f 8e-/	.	.	.	.	.
8FL 8C'\	8f 8e-/	.	.	.	.	.
8AJ 8F'\	8f 8e-/	.	.	8en/	-je	.
8FL 8C'\	8f 8e-/	.	.	8e-X/	z gor-	.
8AJ 8F'\	8fJ 8e-/	.	.	8c/	-nych	.
!!pagebreak:original
=9	=9	=9	=9	=9	=9	=9
*ped	*	*	*	*	*	*
8FL 8FF'/	8ccL 8e-/	.	.	[4cc\	sfer	.
8AJ 8F'/	8e-J 8c/	.	.	.	.	.
8FL 8FF'/	8e-L 8c/	.	.	8cc\]	,	.
*Xped	*	*	*	*	*	*
8AJ 8F'/	8e- 8c/	.	.	8r	.	.
8F#XL 8FF#X'/	8d 8c/	.	.	8.d/	nie-	.
8AJ 8F#'/	8dJ 8c/	.	.	.	.	.
.	.	.	.	16d/	-chaj	.
=10	=10	=10	=10	=10	=10	=10
!	!	!	!	!	!	!LO:DY:a
8GL 8GG'\	8b-L 8d 8B-'/	<	.	4.b-/	stru-	<
8G'\	8d 8B-'/	.	.	.	.	.
8G'\	8d 8B-'/	.	.	.	.	.
8G'\	8g 8d 8B-'/	.	.	16a/LL	-mień	.
.	.	.	.	16g/JJ	.	.
8G'\	8g 8d 8B-'/	.	.	16f#X/LL	po-	.
.	.	.	.	16g/JJ	.	.
8F'\J	8gJ 8d 8B-'/	[	.	16b-\LL	-nad	.
.	.	.	.	16dd\JJ	.	[[
=11	=11	=11	=11	=11	=11	=11
!	!	!	!	!	!	!LO:DY:a
8En'\L	8gL 8d 8B-'/	>	.	(4dd\	łą-	>
8E'\J	8gJ 8d 8B-'/	.	.	.	.	.
8B-L 8E'\	8gL 8c'/	.	.	8g/)	-ką	]
8B-J 8E\	8gJ 8c'/	]	.	8r	.	.
8GL 8E'\	8ccL 8c'/	.	.	8.cc\	w strzy-	.
8GJ 8E'\	8gJ 8c'/	.	.	.	.	.
.	.	.	.	16b-\	-ma	.
!!linebreak:original
=12	=12	=12	=12	=12	=12	=12
8AL 8F'\	8aL 8c'/	.	.	4.a/	bieg,	.
8C#X'\	8a 8f'/	.	.	.	.	.
8D'\J	8a 8f'/	.	.	.	.	.
(16BB-/LL	(16gL 16en/	.	.	16g/LL	przy-	.
16AA/JJ	16aJJ 16f/	.	.	16a/JJ	.	.
8GG/L)	8b-L 8g/)	.	.	8.b-/	-tłu-	.
8Cn'/J	(16eL 16c/	.	.	.	.	.
.	16B-/JJ	.	.	16en/	-mi	.
=13	=13	=13	=13	=13	=13	=13
8FF'/L	8fL 8A/)	.	.	4f/	szmer,	.
8F'/	8f 8c 8A/	.	.	.	.	.
8En'/	8f 8c 8A/	.	.	4r	.	.
8E-X'/	8f 8c 8A/	.	.	.	.	.
8D'/	8f#X 8d 8A/	.	.	8.f#X/	za-	.
8C'/J	8f#J 8d 8A/	.	.	.	.	.
.	.	.	.	16f#/	-każ	.
=14	=14	=14	=14	=14	=14	=14
8BB-'/L	8gL 8d 8G/	.	.	4.g/	ptas-	.
8AA'/J	8gJ 8d 8G/	.	.	.	.	.
8GG/L	8gL 8d 8B-/	.	.	.	.	.
(16AA/L	8gJ 8d 8B-/	.	.	8b-/	-twu	.
16BB-/JJ	.	.	.	.	.	.
8C/L)	8aL 8e- 8A/	.	.	8a/	niech	.
8C#X'/J	8gJ 8en 8A/	.	.	8g/	nie	.
!!linebreak:original
=15	=15	=15	=15	=15	=15	=15
8D'\L	8f#XL 8d 8A/	<	.	4f#X/	śpie-	.
8A\	(8f# 8d/	.	.	.	.	.
8d\	8a 8f#/)	.	.	8d/	-wa	.
8c'\	8d'/	[	.	8r	.	.
!	!	!LO:DY:t=più %s	!	!	!	!LO:DY:a:t= più %s
8B-'\	8d'/	f	.	8.d/	gdy	f
8A'\J	8dJ 8c'/	.	.	.	.	.
.	.	.	.	16d/	mu	.
=16	=16	=16	=16	=16	=16	=16
8GL 8GG\	8b-L 8B-/	.	.	4.b-\	śpiéw	.
8B-J 8G\	8b- 8d/	.	.	.	.	.
8GG\L	8b- 8d/	.	.	.	.	.
8B-J 8G\	8dd 8f/	.	.	8dd\	dał	.
8C\L	8cc 8en/	.	.	8.cc\	świa-	.
8cJ 8G\	8b-J 8e/	.	.	.	.	.
.	.	.	.	16b-\	-ta	.
=17	=17	=17	=17	=17	=17	=17
8F\L	(8.aL 8.f/	>	.	4a/	król,	.
8cJ 8A\	.	.	.	.	.	.
.	16b-Jk 16g/	.	.	.	.	.
8F\L	8ccL 8a/)	.	.	4r	.	.
8A 8F 8E-\	8f/	.	.	.	.	.
8B- 8F 8D\	8f/	]	.	8f/	nie-	.
8B-J 8F 8BB-\	8fJ 8d/	.	.	8f/	-chaj	.
!!linebreak:original
=18	=18	=18	=18	=18	=18	=18
!	!	!	!	!	!	!LO:DY:a
8B-L 8E-\	8gL 8c/	<	.	4.g/	wios-	<
8B- 8E-\	8g 8c/	.	.	.	.	.
8B- 8E-\	8g 8c/	.	.	.	.	.
8F 8E-\	8a 8c/	.	.	8a/	-na	.
8F 8D\	8b- 8B-/	.	.	8b-\	nie	.
8AJ 8F 8C\	8ccJ 8f 8e-/	[	.	8cc\	o-	[
=19	=19	=19	=19	=19	=19	=19
!	!	!	!	!	!	!LO:DY:a
8B-L 8F 8BB-\	8ee-L 8f 8e-/	sf	.	4.ee-\	-dzie-	>
8B- 8F 8BB-\	8ee- 8f 8e-/	>	.	.	.	.
8B- 8F 8BB-\	8ee- 8f 8e-/	.	.	.	.	.
8B-J 8F 8BB-\	8dd 8f 8d/	.	.	8dd\	-wa	.
8B-L 8D\	8b- 8f/	]	.	8.b-\	zie-	.
8B-J 8E-\	8gJ 8e-/	.	.	.	.	.
.	.	.	.	16g/	-lo-	]
=20	=20	=20	=20	=20	=20	=20
8B-L 8F\	8fL 8d/	p	.	4.f/	-noś-	.
8B- 8F\	8f 8d/	.	.	.	.	.
8B- 8F\	8f 8d/	.	.	.	.	.
8B-J 8F\	8fJ 8d/	.	.	8f/	-cią	.
.	8qa/	.	.	8qa/	.	.
8AL 8E-\	8gL 8c/	.	.	8.g/	drzew	.
8AJ 8E-\	8fJ 8c/	.	.	.	.	.
.	.	.	.	16f/	i	.
!!pagebreak:original
=21	=21	=21	=21	=21	=21	=21
8BnL 8A-X 8F 8D\	8f'/	.	.	4f/	pól,	.
8B 8A- 8F 8D\	[8ffL 8f^^\	.	.	.	.	.
!	!LO:TX:b:i:t=dolce	!	!	!	!	!
8B 8A- 8F 8D\	16ff\L]	.	.	4r	.	.
.	16een\	.	.	.	.	.
8BJ 8A- 8F 8D\	16ee-X\	.	.	.	.	.
.	16dd\JJ	.	.	.	.	.
8cL 8An 8F 8E-\	16cc/LL	.	.	8.f/	nie	.
.	16b-/	.	.	.	.	.
8cJ 8A 8F 8E-\	16a/	.	.	.	.	.
.	16g/JJ	.	.	16f/	o-	.
=22	=22	=22	=22	=22	=22	=22
8BnL 8A-X 8F 8D\	8f/	<	.	[2.ff\	-dzie-	.
8B 8A- 8F 8D\	[8fffL 8ff^^\	.	.	.	.	.
8B 8A- 8F 8D\	16fff\L]	.	.	.	.	.
.	16eeen\	.	.	.	.	.
8BJ 8A- 8F 8D\	16eee-X\	.	.	.	.	.
.	16ddd\JJ	.	.	.	.	.
8cL 8An 8F 8E-\	16ccc\LL	.	.	.	.	.
.	16bb-\	.	.	.	.	.
8cJ 8A 8F 8E-\	16aa\	.	.	.	.	.
.	16gg\JJ	[	.	.	.	.
=23	=23	=23	=23	=23	=23	=23
8B- 8F 8D\	8ff\	.	.	4ff\_	.	.
16r	16r	.	.	.	.	.
16DD/	16f 16B-/	f	.	.	.	.
!	!	!	!	!LO:TX:a:i:t=ad libit.	!	!
4D^/	(>4b- 4f 4B-^/	.	.	16ff\LL]	.	.
.	.	.	.	16een\JJ	.	.
.	.	.	.	16ee-X\LL	-wa	.
.	.	.	.	16dd\JJ	.	.
8B-L 8E-\	8ccL 8g/	.	.	16cc\LL	zie-	.
.	.	.	.	16b-\JJ	.	.
8B-J 8En\	8cc#XJ 8g/)	.	.	16a/LL	-lo-	.
.	.	.	.	16g/JJ	.	.
!!linebreak:original
=24	=24	=24	=24	=24	=24	=24
4B- 4F\	8.ddL 8.f/	.	.	8.f/	-noś-	.
.	16b-/Jk	.	.	16b-\	-cią	.
4r	4f/	.	.	4.dd;\	drzew	.
4F;\	4a 4f 4e- 4c;/	.	.	.	.	.
.	.	.	.	8cc\	i	.
=25	=25	=25	=25	=25	=25	=25
*ped	*	*	*	*	*	*
!	!	!	!	!LO:TX:a:B:t=Tempo I.	!	!
8BB- 8BBB-/	8b- 8f 8d/	.	.	4b-\	pól.	.
8B- 8F 8D 8BB-\	([8ddL 8b- 8f 8d^^\	ff	.	.	.	.
8B-L 8F 8D 8BB-\	16dd\L]	.	.	4r	.	.
.	16ee-\	.	.	.	.	.
8B- 8F 8D 8BB-\	16een\	.	.	.	.	.
.	16ff\JJ	.	.	.	.	.
.	8qaa/	.	.	.	.	.
8B- 8F 8D 8BB-\	16gg\LL	.	.	4r	.	.
.	16ff\	.	.	.	.	.
8B-J 8F 8D 8BB-\	16bb-\	.	.	.	.	.
*Xped	*	*	*	*	*	*
.	16ddd\JJ	.	.	.	.	.
=26	=26	=26	=26	=26	=26	=26
8AL 8F 8C 8BB-\	8fff\)	.	.	2.r	.	.
8A 8F 8C 8BB-\	4eeen 4ccc 4een^^\	.	.	.	.	.
8A 8F 8C 8BB-\	.	.	.	.	.	.
8AJ 8F 8C 8BB-\	4eee-X 4ccc 4ee-X^^\	.	.	.	.	.
8AL 8F 8E- 8BB-\	.	.	.	.	.	.
8AJ 8F 8E- 8BB-\	8ccc 8ff 8cc^^\	.	.	.	.	.
!!linebreak:original
=27	=27	=27	=27	=27	=27	=27
!	!	!LO:HP:a=1	!	!	!	!
8B-L 8F 8D 8BB-\	(4ccc#X 4ff 4cc#X\	>	.	2.r	.	.
8B- 8F 8D 8BB-\	.	.	.	.	.	.
8B- 8F 8D 8BB-\	16dddLL 16dd\)	]	.	.	.	.
.	(16ee-\	.	.	.	.	.
8B- 8F 8D 8BB-\	16een\	.	.	.	.	.
.	16ff\JJ	.	.	.	.	.
.	8qaa/	.	.	.	.	.
8B- 8F 8D 8BB-\	16gg\LL	.	.	.	.	.
.	16ff\	.	.	.	.	.
8B-J 8F 8D 8BB-\	16bb-\	.	.	.	.	.
.	16ddd\JJ)	.	.	.	.	.
=28	=28	=28	=28	=28	=28	=28
8AL 8F 8E- 8BB-\	8ggg 8gg'\	.	.	2.r	.	.
8A 8F 8E- 8BB-\	([8fff [8ff^^\	.	.	.	.	.
8A 8F 8E- 8BB-\	16fff]LL 16ff\]	.	.	.	.	.
.	16eee-\	.	.	.	.	.
8AJ 8F 8E- 8BB-\	16ccc\	.	.	.	.	.
.	16ff\JJ)	.	.	.	.	.
8AL 8F 8BB-\	8.dddL 8.ff^\	.	.	.	.	.
8AJ 8F 8BB-\	.	.	.	.	.	.
.	16cccJk 16ee-\	.	.	.	.	.
=29	=29	=29	=29	=29	=29	=29
8B-L 8F 8BB-\	[4bb- [4dd\	>	.	4r	.	.
8B-J 8F 8D\	.	.	.	.	.	.
8B-L 8F 8BB-\	8bb-] 8dd\]	]	.	4r	.	.
8B-J 8F 8D\	8r	.	.	.	.	.
8B-L 8F 8BB-\	8.d/L	p	.	8.d/	Czyż	.
8B-J 8F\	.	.	.	.	.	.
.	16e-/Jk	.	.	16e-/	za-	.
!!linebreak:original
=30	=30	=30	=30	=30	=30	=30
8FL 8D 8BB-\	(2f/	.	.	4.f/	-milk-	.
8B-J 8F 8D\	.	.	.	.	.	.
8FL 8D 8BB-\	.	.	.	.	.	.
8B-J 8F 8D\	.	.	.	8dd\	-nie	.
8FL 8D 8BB-\	4b-/)	.	.	8.b-\	śpiew-	.
8B-J 8F 8D\	.	.	.	.	.	.
.	.	.	.	16d/	-ne	.
=31	=31	=31	=31	=31	=31	=31
8FL 8D 8BB-\	8r	.	.	4g/	pta-	.
8B-J 8F 8D\	([8dd^\L	.	.	.	.	.
!	!LO:TX:b:i:t=dolcissimo:rj	!	!	!	!	!
8FL 8D 8BB-\	16dd\L]	.	.	8f/	-sze?	.
.	16ee-\	.	.	.	.	.
8B-J 8F 8D\	16een\	.	.	8r	.	.
.	16ff\JJ	.	.	.	.	.
.	8qaa/	.	.	.	.	.
8FL 8D 8BB-\	16gg\LL	.	.	8.a/	stra-	.
.	16ff\	.	.	.	.	.
8B-J 8F 8D\	16fff\	.	.	.	.	.
.	16ff\JJ)	.	.	16g/	-cąż	.
=32	=32	=32	=32	=32	=32	=32
8FL 8E- 8C\	8fff\	.	.	4.f/	po-	.
8AJ 8F 8E-\	8r	.	.	.	.	.
8FL 8E- 8C\	4r	.	.	.	.	.
8AJ 8F 8E-\	.	.	.	8en/	-la	.
8FL 8E- 8C\	4r	.	.	8e-X/	bar-	.
8AJ 8F 8E-\	.	.	.	8c/	-wę	.
!!pagebreak:original
=33	=33	=33	=33	=33	=33	=33
8FF\L	8r	.	.	[4cc\	swą	.
8AJ 8F 8C\	([8ee-^\L	.	2	.	.	.
8FF\L	16ee-\L]	.	.	8cc\]	?	.
.	16een\	.	3	.	.	.
8AJ 8F 8C\	16ff\	.	.	8r	.	.
.	16aa\JJ	.	.	.	.	.
.	8qccc/	.	.	.	.	.
8FF#X\L	16bb-\LL	.	.	8.d/	oh!	.
.	16aa\	.	.	.	.	.
8cJ 8A 8D\	16ddd\	.	.	.	.	.
.	16dd\JJ)	.	.	16d/	tak	.
=34	=34	=34	=34	=34	=34	=34
8GG\L	8bb-\	.	.	4.b-^\	sa-	.
(8B- 8D\	8r	.	.	.	.	.
8GJ 8BB-\)	4r	.	.	.	.	.
!	!	!LO:HP:a=2	!	!	!	!LO:DY:a
8dL 8B- 8G\	.	<	.	16a/LL	-mo	<
.	.	.	.	16g/JJ	.	.
8d 8B- 8G\	4r	.	.	16f#X/LL	ser-	.
.	.	.	.	16g/JJ	.	.
8dJ 8B- 8G 8F\	.	[	.	16b-\LL	-ca	.
.	.	.	.	16dd\JJ	.	[
!!linebreak:original
=35	=35	=35	=35	=35	=35	=35
!	!	!	!	!	!	!LO:DY:a
8En\L	8r	>	.	4dd\	na-	>
8dJ 8B- 8G\	([8gg^\L	]	.	.	.	.
8E\L	16gg\L]	.	.	8g/	-sze	]
.	16aa\	.	.	.	.	.
8cJ 8B- 8G\	16bb-\	.	.	8r	.	.
.	16bbn\JJ	.	.	.	.	.
.	8qeeen/	.	.	.	.	.
8E\L	16ddd\LL	.	.	8.cc\	na	.
.	16ccc\	.	.	.	.	.
8cJ 8G\	16ggg\	.	.	.	.	.
.	16bb-X\JJ)	.	.	16b-\	roz-	.
=36	=36	=36	=36	=36	=36	=36
8F\L	8aa'\	.	.	4.a/	-ka-	.
8c#X 8C#X'\	4aa 4ff 4a^\	.	.	.	.	.
8d 8D'\	.	.	.	.	.	.
8A 8AA'\	(16gLL 16en/	.	.	16g/LL	-zy	.
.	16aJJ 16f/	.	.	16a/JJ	.	.
8G 8GG'\	8b- 8g/)	.	.	8.b-/	głu-	.
(<8Cn\J	(16eLL 16c/	.	.	.	.	.
.	16B-/JJ	.	.	16en/	-che	.
!!linebreak:original
=37	=37	=37	=37	=37	=37	=37
8FF/L)	8f 8A'/)	.	.	4f/	są.	.
8F'/	4ff 4a 4f^^\	.	.	.	.	.
8En'/	.	.	.	4r	.	.
8E-X'/	8fL 8c 8A/	.	.	.	.	.
8D'/	8f#X 8d 8A/	.	.	8.f#X/	Nie	.
8C'/J	8f#J 8d 8A/	.	.	.	.	.
.	.	.	.	16f#/	zwa-	.
=38	=38	=38	=38	=38	=38	=38
8BB-'/L	8gL 8d 8G/	.	.	4.g/	-za-	.
8AA'/J	8gJ 8d 8G/	.	.	.	.	.
!LO:TX:t=P:problem:diminuendolike accent	!	!	!	!	!	!
(8GG/L^	8gL 8d 8B-/	.	.	.	.	.
16AA/L	8gJ 8d 8B-/	.	.	8b-/	-jąc	.
16BB-/JJ	.	.	.	.	.	.
8C'/L)	8aL 8e- 8A/	.	.	8a/	na	.
8C#X'/J	8gJ 8en 8A/	.	.	8g/	prze-	.
=39	=39	=39	=39	=39	=39	=39
!	!	!LO:HP:b=2	!	!	!	!
8D'\L	8f#X 8d 8A'/	<	.	4f#X/	-szko-	.
8A 8F#X'\	([8ddd [8dd^\	.	.	.	.	.
8d 8D'\	16ddd]LL 16dd\]	.	.	8d/	-dę	.
.	16aa\	.	.	.	.	.
8c 8D 8C'\	16ff#X\	[	.	8r	.	.
.	16dd\JJ)	.	.	.	.	.
!	!	!	!	!	!	!LO:DY:a:t=più %s
8B- 8D 8BB-'\	8dd'\L	.	.	8.d/	jak	f
8AJ 8D 8AA'\	8ddJ 8cc 8f#'\	.	.	.	.	.
.	.	.	.	16d/	po-	.
!!linebreak:original
=40	=40	=40	=40	=40	=40	=40
8GL 8D 8GG'\	8ddL 8b- 8g'/	.	.	4.b-\	-to-	.
8B-J 8G\	8b-J 8g 8d/	.	.	.	.	.
8GG'\L	8r	.	.	.	.	.
8B-J 8G'\	(8ddL 8g 8f/	.	.	8dd\	-ki	.
8C'\L	8cc 8g 8en/)	.	.	8.cc\	stro-	.
8cJ 8G'\	8b-J 8g 8e'/	.	.	.	.	.
.	.	.	.	16b-\	-mych	.
=41	=41	=41	=41	=41	=41	=41
8F'\L	8a 8f/	.	.	4a/	skał	.
8cJ 8A'\	([8fff [8ff^^\	>	.	.	.	.
8F'\L	16fff]LL 16ff\]	.	.	4r	.	.
.	16ccc\	.	.	.	.	.
8c 8F 8E-'\	16aa\	.	.	.	.	.
.	16ff\JJ)	]	.	.	.	.
8B- 8F 8D'\	8ff\L	.	.	8f/	mu-	.
8B-J 8F 8D'\	8ffJ 8b- 8f\	.	.	8f/	-szą	.
=42	=42	=42	=42	=42	=42	=42
!	!	!	!	!	!	!LO:DY:a
8B- 8E-\	8gg 8b- 8g\	.	.	4.g/	ko-	<
16B-LL 16E-'\	16gLL 16c'/	<	.	.	.	.
16B-J 16E-'\	16gJ 16c'/	.	.	.	.	.
8B- 8E-'\	8g 8c'/	.	.	.	.	.
8F 8E-'\	8a 8f 8c'/	.	.	8a/	-chać	.
8F 8D'\	8b- 8f 8B-'/	.	.	8b-\	po-	.
8AJ 8F 8C'\	8ccJ 8f 8e-'/	[	.	8cc\	-ki	[
!!pagebreak:original
=43	=43	=43	=43	=43	=43	=43
!	!	!	!	!	!	!LO:HP:a:problem:diminuendolike accent
8B-L 8F 8BB-\	8ee-L 8f 8e-/	sf	.	4.ee-\	mło-	>
8B- 8F 8BB-\	8ee- 8f 8e-/	.	.	.	.	]
8B- 8F 8BB-\	8ee- 8f 8e-/	.	.	.	.	.
8B-J 8F 8BB-\	8dd 8f 8d/	.	.	8dd\	-de,	.
8B-L 8D\	8b- 8f/	.	.	8.b-\	bo	.
8B-J 8E-\	8gJ 8e-/	.	.	.	.	.
.	.	.	.	16g/	Bóg	.
=44	=44	=44	=44	=44	=44	=44
8B-L 8F\	8fL 8d/	>	.	4.f/	na	.
8B- 8F\	8f 8d/	.	.	.	.	.
8B- 8F\	8f 8d/	.	.	.	.	.
8B-J 8F\	8fJ 8d/	]	.	8f/	to	.
.	8qa/	.	.	8qa/	.	.
8AL 8E-\	8gL 8c/	.	.	8g/	ser-	.
8AJ 8E-\	8fJ 8c/	.	.	8f/	-ce	.
=45	=45	=45	=45	=45	=45	=45
8BnL 8A-X 8F 8D\	8f/	.	.	4f/	dał	.
8B 8A- 8F 8D\	[8ffL 8f^\	.	.	.	.	.
!	!LO:TX:b:i:t=dolce	!	!	!	!	!
8B 8A- 8F 8D\	16ff\L]	.	.	4r	.	.
.	16een\	.	.	.	.	.
8BJ 8A- 8F 8D\	16ee-X\	.	.	.	.	.
.	16dd\JJ	.	.	.	.	.
8cL 8An 8F 8E-\	16cc/LL	.	.	8.f/	bo	.
.	16b-/	.	.	.	.	.
8cJ 8A 8F 8E-\	16a/	.	.	.	.	.
.	16g/JJ	.	.	16f/	Bóg	.
!!linebreak:original
=46	=46	=46	=46	=46	=46	=46
8BnL 8A-X 8F 8D\	8f'/	<	.	[2.ff\	na	.
8B 8A- 8F 8D\	[8fffL 8ff^^\	.	.	.	.	.
8B 8A- 8F 8D\	16fff\L]	.	.	.	.	.
.	16eeen\	.	.	.	.	.
8BJ 8A- 8F 8D\	16eee-X\	.	.	.	.	.
.	16ddd\JJ	.	.	.	.	.
8cL 8An 8F 8E-\	16ccc\LL	.	.	.	.	.
.	16bb-\	.	.	.	.	.
8cJ 8A 8F 8E-\	16aa\	.	.	.	.	.
.	16gg\JJ	[	.	.	.	.
=47	=47	=47	=47	=47	=47	=47
8B- 8F 8D\	8ff\	f	.	4ff\_	.	.
16r	16r	.	.	.	.	.
16DD/	16f 16B-/	.	.	.	.	.
!	!	!	!	!LO:TX:a:i:t=ad libit.	!	!
4D^>/	(>4b- 4f 4B-^>/	.	.	16ff\LL]	.	.
.	.	.	.	16een\JJ	.	.
.	.	.	.	16ee-X\LL	to,	.
.	.	.	.	16dd\JJ	.	.
8B-L 8E-\	8ccL 8g/	.	.	16cc\LL	bo	.
.	.	.	.	16b-\JJ	.	.
8B-J 8En\	8cc#XJ 8g/)	.	.	16a/LL	Bóg	.
.	.	.	.	16g/JJ	.	.
!!linebreak:original
=48	=48	=48	=48	=48	=48	=48
4B- 4F\	8.ddL 8.f/	.	.	8.f/	na	.
.	16b-/Jk	.	.	16b-\	to	.
4r	4f/	.	.	4.dd;\	ser-	.
4F;\	4a 4f 4e- 4c;/	.	.	.	.	.
.	.	.	.	8cc\	-ce	.
=49	=49	=49	=49	=49	=49	=49
*ped	*	*	*	*	*	*
!	!LO:TX:b:B:t=Tempo I.	!	!	!	!	!
8BB- 8BBB-/	8b- 8f 8d/	.	.	4b-\	dał.	.
!	!LO:TX:t=P:problem:marcato below	!	!	!	!	!
8B- 8F 8D 8BB-\	([8ddL 8b- 8f 8d^^/	ff	.	.	.	.
8B-L 8F 8D 8BB-\	16dd/L]	.	.	4r	.	.
.	16ee-/	.	.	.	.	.
8B- 8F 8D 8BB-\	16een/	.	.	.	.	.
.	16ff/JJ	.	.	.	.	.
.	8qaa/	.	.	.	.	.
8B- 8F 8D 8BB-\	16gg\LL	.	.	4r	.	.
.	16ff\	.	.	.	.	.
8B-J 8F 8D 8BB-\	16bb-\	.	.	.	.	.
*Xped	*	*	*	*	*	*
.	16ddd\JJ)	.	.	.	.	.
=50	=50	=50	=50	=50	=50	=50
8AL 8F 8C 8BB-\	8fff'\	.	.	2.r	.	.
8A 8F 8C 8BB-\	4eeen 4ccc 4een^^\	.	.	.	.	.
8A 8F 8C 8BB-\	.	.	.	.	.	.
8AJ 8F 8C 8BB-\	4eee-X 4ccc 4ee-X^^\	.	.	.	.	.
8AL 8F 8E- 8BB-\	.	.	.	.	.	.
8AJ 8F 8E- 8BB-\	8ccc 8ff 8cc^^\	.	.	.	.	.
!!linebreak:original
=51	=51	=51	=51	=51	=51	=51
8B-L 8F 8D 8BB-\	(4ccc#X 4ff (4cc#X^\	.	.	2.r	.	.
8B- 8F 8D 8BB-\	.	.	.	.	.	.
8B- 8F 8D 8BB-\	16dddLL 16dd\))	.	.	.	.	.
.	(16ee-\	.	.	.	.	.
8B- 8F 8D 8BB-\	16een\	.	.	.	.	.
.	16ff\JJ	.	.	.	.	.
.	8qaa/	.	.	.	.	.
8B- 8F 8D 8BB-\	16gg\LL	.	.	.	.	.
.	16ff\	.	.	.	.	.
8B-J 8F 8D 8BB-\	16bb-\	.	.	.	.	.
.	16ddd\JJ)	.	.	.	.	.
=52	=52	=52	=52	=52	=52	=52
8AL 8F 8E- 8BB-\	8ggg 8gg'\	.	.	2.r	.	.
8A 8F 8E- 8BB-\	([8fff [8ff^^\	.	.	.	.	.
8A 8F 8E- 8BB-\	16fff]LL 16ff\]	.	.	.	.	.
.	16eee-\	.	.	.	.	.
8AJ 8F 8E- 8BB-\	16ccc\	.	.	.	.	.
.	16ff\JJ)	.	.	.	.	.
8AL 8F 8BB-\	8.dddL 8.ff^\	.	.	.	.	.
8AJ 8F 8BB-\	.	.	.	.	.	.
.	16cccJk 16ee-\	.	.	.	.	.
=53	=53	=53	=53	=53	=53	=53
8B- 8F 8BB-\	8bb- 8dd\	.	.	2.r	.	.
16r	16r	.	.	.	.	.
16BB- 16BBB-/	16b- 16f 16d 16B-/	.	.	.	.	.
4.BB- 4.BBB-/	4.b- 4.f 4.d 4.B-/	.	.	.	.	.
8r	8r	.	.	.	.	.
==	==	==	==	==	==	==
*-	*-	*-	*-	*-	*-	*-
!!!system-decoration: s1{(s2,s3)}
!!!RDF**kern: > = above
!!!RDF**kern: < = below
!!!ENC: Solarz Mateusz
!!!END: 2022-09-27
!!!ENC: Krzysztof Stępień
!!!END: 2022-10-31
!!!YEC: Copyright 2022 Narodowy Instytut Fryderyka Chopina (https://polishscores.org)
!!!YEM: License CC-BY-4.0 (https://creativecommons.org/licenses/by/4.0)
